X: 38691
T: Straw Rope, The
R: jig
M: 6/8
K: Dmajor
|:(3ABc|def ecA|BdB AFD|def ecA|Bcd efg|
fed ecA|BdB AFD|GAB Adc|dec d:|
|:(3gfe|dfa afd|ced cBA|dfa afd|Bcd e2f/e/|
dfa afd|ced cBA|GAB Adc|dec d:|

